icons/modus-outlined/arrow-right.svg

<svg xmlns="http://www.w3.org/2000/svg" width="24" height="24" fill="currentColor" viewBox="0 0 24 24">
  <path d="m20.79,12c0,.38-.15.77-.44,1.06l-6.79,6.79c-.43.43-1.07.56-1.63.33s-.93-.78-.93-1.39v-2.79h-6.5c-.83,0-1.5-.67-1.5-1.5v-5c0-.83.67-1.5,1.5-1.5h6.5v-2.79c0-.61.36-1.15.93-1.39s1.2-.11,1.63.33l6.79,6.79c.29.29.44.68.44,1.06Zm-7.79,5.59l5.59-5.59-5.59-5.59v3.59H5v4h8v3.59Z"/>
</svg>

<svg xmlns="http://www.w3.org/2000/svg" width="24" height="24" fill="currentColor" viewBox="0 0 24 24">
  <path d="M20.79 12c0 .38-.15.77-.44 1.06l-6.79 6.79A1.497 1.497 0 0 1 11 18.79V16H4.5c-.83 0-1.5-.67-1.5-1.5v-5C3 8.67 3.67 8 4.5 8H11V5.21c0-.61.36-1.15.93-1.39s1.2-.11 1.63.33l6.79 6.79c.29.29.44.68.44 1.06M13 17.59 18.59 12 13 6.41V10H5v4h8z"/>
</svg>
